Origami/64x64/apps/rapidsvn.svg

<svg width="64" height="64" version="1.1" viewBox="0 0 64 64" xmlns="http://www.w3.org/2000/svg">
 <path d="M 32,4 A 28,28 0 0 0 4,32 28,28 0 0 0 32,60 28,28 0 0 0 60,32 28,28 0 0 0 32,4 Z" style="fill:#4f4f4f"/>
 <path d="M 31.998047 4 A 28 28 0 0 0 4 32 A 28 28 0 0 0 4.0214844 32.40625 A 28 28 0 0 1 31.998047 5 L 32 5 A 28 28 0 0 1 59.976562 32.585938 A 28 28 0 0 0 59.998047 32 A 28 28 0 0 0 32 4 L 31.998047 4 z" style="fill:#ffffff;opacity:.1"/>
 <path d="M 4.0214844,32.421875 A 28,28 0 0 0 4,33 28,28 0 0 0 32,61 28,28 0 0 0 60,33 28,28 0 0 0 59.978516,32.59375 28,28 0 0 1 32,60 28,28 0 0 1 4.0214844,32.421875 Z" style="opacity:.2"/>
 <path d="M 38,47.397438 C 38,49.344774 35.293956,55 32,55 27.887474,55 22,50.517612 22,47.580122 22,44.642636 25.887472,43 30,43 c 4.112526,0 8,2.316922 8,4.397438 z M 48.000002,32.021646 A 4.000002,2.9783526 0 0 1 44,35 4.000002,2.9783526 0 0 1 39.999998,32.021646 4.000002,2.9783526 0 0 1 44,29.043294 a 4.000002,2.9783526 0 0 1 4.000002,2.978352 z m 4.254774,-18.35306 c 0,0 -14.944694,12.83008 -31.019248,13.331414 -4.408462,0.137356 -7.631089,-0.967774 -9.797365,-2 C 9.2718884,23.967742 6.5299222,21.369216 6.5299222,21.369216 L 5.6753054,23.46006 c 0,0 1.4649726,1.381168 2.1705506,1.888702 C 8.4163036,28.401204 10.687115,37 20,37 c 7.884356,0 10.870546,-6.420344 11.716894,-9.641838 11.683204,-3.329328 21.95531,-12.085886 21.95531,-12.085886 z" style="opacity:.1"/>
 <path d="m38 46.397438c0 1.947336-2.706044 7.602562-6 7.602562-4.112526 0-10-4.482388-10-7.419878 0-2.937486 3.887472-4.580122 8-4.580122 4.112526 0 8 2.316922 8 4.397438zm10.000002-15.375792c2e-6 1.6449-1.790862 2.978354-4.000002 2.978354s-4.000004-1.333454-4.000002-2.978354c0-1.644898 1.790862-2.978352 4.000002-2.978352s4.000002 1.333454 4.000002 2.978352zm3.704863-17.894118s-14.695647 12.091827-30.770201 12.593161c-4.408462 0.137356-7.631089-0.967774-9.797365-2-2.1662745-1.032258-4.2553615-3.062481-4.2553615-3.062481l-0.89342 2.016459s0.8508966 0.88725 1.5564746 1.394784c0.5704476 3.052442 3.1421229 11.930549 12.455008 11.930549 7.884356 0 10.870546-6.420344 11.716894-9.641838 11.683204-3.329328 21.404407-11.709182 21.404407-11.709182z" style="fill:#e6e6e6"/>
</svg>

<svg xmlns="http://www.w3.org/2000/svg" width="64" height="64" version="1.1" viewBox="0 0 64 64">
 <path style="fill:#4f4f4f" d="M 32,4 A 28,28 0 0 0 4,32 28,28 0 0 0 32,60 28,28 0 0 0 60,32 28,28 0 0 0 32,4 Z"/>
 <path style="opacity:0.1;fill:#ffffff" d="M 31.998047 4 A 28 28 0 0 0 4 32 A 28 28 0 0 0 4.0214844 32.40625 A 28 28 0 0 1 31.998047 5 L 32 5 A 28 28 0 0 1 59.976562 32.585938 A 28 28 0 0 0 59.998047 32 A 28 28 0 0 0 32 4 L 31.998047 4 z"/>
 <path style="opacity:0.2" d="M 4.0214844,32.421875 A 28,28 0 0 0 4,33 28,28 0 0 0 32,61 28,28 0 0 0 60,33 28,28 0 0 0 59.978516,32.59375 28,28 0 0 1 32,60 28,28 0 0 1 4.0214844,32.421875 Z"/>
 <path style="opacity:0.1" d="M 38,47.397438 C 38,49.344774 35.293956,55 32,55 27.887474,55 22,50.517612 22,47.580122 22,44.642636 25.887472,43 30,43 c 4.112526,0 8,2.316922 8,4.397438 z M 48.000002,32.021646 A 4.000002,2.9783526 0 0 1 44,35 4.000002,2.9783526 0 0 1 39.999998,32.021646 4.000002,2.9783526 0 0 1 44,29.043294 a 4.000002,2.9783526 0 0 1 4.000002,2.978352 z m 4.254774,-18.35306 c 0,0 -14.944694,12.83008 -31.019248,13.331414 -4.408462,0.137356 -7.631089,-0.967774 -9.797365,-2 C 9.2718884,23.967742 6.5299222,21.369216 6.5299222,21.369216 L 5.6753054,23.46006 c 0,0 1.4649726,1.381168 2.1705506,1.888702 C 8.4163036,28.401204 10.687115,37 20,37 c 7.884356,0 10.870546,-6.420344 11.716894,-9.641838 11.683204,-3.329328 21.95531,-12.085886 21.95531,-12.085886 z"/>
 <path style="fill:#e6e6e6" d="M 38,46.397438 C 38,48.344774 35.293956,54 32,54 27.887474,54 22,49.517612 22,46.580122 22,43.642636 25.887472,42 30,42 c 4.112526,0 8,2.316922 8,4.397438 z M 48.000002,31.021646 C 48.000004,32.666546 46.20914,34 44,34 c -2.20914,0 -4.000004,-1.333454 -4.000002,-2.978354 0,-1.644898 1.790862,-2.978352 4.000002,-2.978352 2.20914,0 4.000002,1.333454 4.000002,2.978352 z m 3.704863,-17.894118 c 0,0 -14.695647,12.091827 -30.770201,12.593161 -4.408462,0.137356 -7.631089,-0.967774 -9.797365,-2 C 8.9710245,22.688431 6.8819375,20.658208 6.8819375,20.658208 l -0.89342,2.016459 c 0,0 0.8508966,0.88725 1.5564746,1.394784 C 8.1154397,27.121893 10.687115,36 20,36 27.884356,36 30.870546,29.579656 31.716894,26.358162 43.400098,23.028834 53.121301,14.64898 53.121301,14.64898 Z"/>
</svg>
